X:92
T: Die dienende Schwester
N: Q0075u
O: Mitteleuropa, Deutschland (BRD) , Rheinprovinz
R: Ballade, Adelige als Dienstmagd, Tod; Kinder - Spiel, Tanz
M: 6/8
L: 1/8
K: F
F | F2AcBA | A2GG2
G | G2ddcB | B2AA2
F | F2ffed | d2cf2
A | A2ddcB | B2AA2

